aurone/rcta_manipulation/object_manipulation_planner/data/roman0/rcta-roman-client-demonstration-trimmed.csv
world_joint/x,world_joint/y,world_joint/z,world_joint/yaw,world_joint/pitch,world_joint/roll,torso_joint1,limb_right_joint1,limb_right_joint2,limb_right_joint3,limb_right_joint4,limb_right_joint5,limb_right_joint6,limb_right_joint7,hinge
0.000000,0.85,0.0,-1.570796,0.0,0.0,0.295459,2.260240,-0.759081,2.818948,0.683469,0.476463,1.517985,-2.593012,1.000000
0.000000,0.85,0.0,-1.570796,0.0,0.0,0.294684,2.261329,-0.761236,2.819167,0.684314,0.475868,1.515217,-2.592707,0.980907
0.000000,0.85,0.0,-1.570796,0.0,0.0,0.293921,2.262404,-0.763385,2.819382,0.685151,0.475292,1.512461,-2.592410,0.980907
0.000000,0.85,0.0,-1.570796,0.0,0.0,0.293165,2.263470,-0.765541,2.819594,0.685984,0.474730,1.509703,-2.592119,0.983294
0.000000,0.85,0.0,-1.570796,0.0,0.0,0.292423,2.264521,-0.767688,2.819800,0.686807,0.474187,1.506962,-2.591835,0.983294
0.000000,0.85,0.0,-1.570796,0.0,0.0,0.291689,2.265562,-0.769836,2.820003,0.687624,0.473659,1.504225,-2.591557,0.985680
0.000000,0.85,0.0,-1.570796,0.0,0.0,0.290964,2.266594,-0.771986,2.820201,0.688436,0.473147,1.501490,-2.591285,0.985680
0.000000,0.85,0.0,-1.570796,0.0,0.0,0.290254,2.267608,-0.774123,2.820395,0.689235,0.472654,1.498779,-2.591022,0.988067
0.000000,0.85,0.0,-1.570796,0.0,0.0,0.289550,2.268616,-0.776270,2.820586,0.690033,0.472174,1.496059,-2.590763,0.988067
0.000000,0.85,0.0,-1.570796,0.0,0.0,0.288857,2.269612,-0.778412,2.820773,0.690822,0.471711,1.493351,-2.590511,0.988067
0.000000,0.85,0.0,-1.570796,0.0,0.0,0.286212,2.272891,-0.778738,2.821677,0.692698,0.468148,1.491601,-2.587731,0.990453
0.000000,0.85,0.0,-1.570796,0.0,0.0,0.283610,2.276129,-0.779062,2.822569,0.694557,0.464645,1.489872,-2.584973,0.988067
0.000000,0.85,0.0,-1.570796,0.0,0.0,0.281033,2.279345,-0.779385,2.823453,0.696411,0.461180,1.488160,-2.582224,0.988067
0.000000,0.85,0.0,-1.570796,0.0,0.0,0.278482,2.282538,-0.779705,2.824331,0.698260,0.457752,1.486462,-2.579481,0.985680
0.000000,0.85,0.0,-1.570796,0.0,0.0,0.275943,2.285724,-0.780024,2.825205,0.700111,0.454345,1.484771,-2.576734,0.985680
0.000000,0.85,0.0,-1.570796,0.0,0.0,0.270895,2.292076,-0.780658,2.826946,0.703815,0.447577,1.481410,-2.571234,0.983294
0.000000,0.85,0.0,-1.570796,0.0,0.0,0.268446,2.295184,-0.780977,2.827795,0.705638,0.444300,1.479762,-2.568522,0.980907
0.000000,0.85,0.0,-1.570796,0.0,0.0,0.265993,2.298299,-0.781289,2.828646,0.707474,0.441020,1.478122,-2.565791,0.980907
0.000000,0.85,0.0,-1.570796,0.0,0.0,0.263563,2.301394,-0.781600,2.829491,0.709303,0.437774,1.476496,-2.563068,0.978520
0.000000,0.85,0.0,-1.570796,0.0,0.0,0.261026,2.304634,-0.781925,2.830374,0.711224,0.434389,1.474798,-2.560205,0.976134
0.000000,0.85,0.0,-1.570796,0.0,0.0,0.258637,2.307695,-0.782232,2.831207,0.713044,0.431205,1.473197,-2.557490,0.976134
0.000000,0.85,0.0,-1.570796,0.0,0.0,0.256264,2.310746,-0.782538,2.832037,0.714864,0.428045,1.471605,-2.554773,0.973747
0.000000,0.85,0.0,-1.570796,0.0,0.0,0.257541,2.309029,-0.778218,2.831725,0.713281,0.428715,1.476982,-2.555207,0.973747
0.000000,0.85,0.0,-1.570796,0.0,0.0,0.258218,2.308130,-0.776047,2.831557,0.712460,0.429102,1.479700,-2.555452,0.971360
0.000000,0.85,0.0,-1.570796,0.0,0.0,0.258891,2.307235,-0.773877,2.831390,0.711642,0.429486,1.482416,-2.555691,0.968974
0.000000,0.85,0.0,-1.570796,0.0,0.0,0.259572,2.306331,-0.771706,2.831219,0.710818,0.429884,1.485138,-2.555937,0.968974
0.000000,0.85,0.0,-1.570796,0.0,0.0,0.260264,2.305415,-0.769534,2.831045,0.709986,0.430297,1.487867,-2.556189,0.966587
0.000000,0.85,0.0,-1.570796,0.0,0.0,0.260964,2.304491,-0.767363,2.830868,0.709148,0.430724,1.490599,-2.556447,0.966587
0.000000,0.85,0.0,-1.570796,0.0,0.0,0.261676,2.303552,-0.765182,2.830687,0.708299,0.431167,1.493349,-2.556712,0.964200
0.000000,0.85,0.0,-1.570796,0.0,0.0,0.262393,2.302609,-0.763013,2.830503,0.707449,0.431622,1.496089,-2.556982,0.964200
0.000000,0.85,0.0,-1.570796,0.0,0.0,0.263126,2.301647,-0.760824,2.830313,0.706584,0.432096,1.498858,-2.557261,0.961814
0.000000,0.85,0.0,-1.570796,0.0,0.0,0.263906,2.300625,-0.758525,2.830111,0.705668,0.432610,1.501773,-2.557560,0.961814
0.000000,0.85,0.0,-1.570796,0.0,0.0,0.264655,2.299646,-0.756346,2.829914,0.704793,0.433113,1.504541,-2.557851,0.959427
0.000000,0.85,0.0,-1.570796,0.0,0.0,0.265415,2.298653,-0.754160,2.829714,0.703909,0.433633,1.507323,-2.558148,0.959427
0.000000,0.85,0.0,-1.570796,0.0,0.0,0.266185,2.297650,-0.751973,2.829509,0.703018,0.434168,1.510111,-2.558452,0.957041
0.000000,0.85,0.0,-1.570796,0.0,0.0,0.263799,2.300777,-0.752252,2.830445,0.704840,0.430870,1.508486,-2.555708,0.957041
0.000000,0.85,0.0,-1.570796,0.0,0.0,0.256820,2.309988,-0.753081,2.833214,0.710244,0.421235,1.503723,-2.547525,0.954654
0.000000,0.85,0.0,-1.570796,0.0,0.0,0.252272,2.316038,-0.753621,2.835021,0.713820,0.414973,1.500612,-2.542107,0.952267
0.000000,0.85,0.0,-1.570796,0.0,0.0,0.247785,2.322044,-0.754157,2.836811,0.717389,0.408805,1.497537,-2.536686,0.949881
0.000000,0.85,0.0,-1.570796,0.0,0.0,0.245568,2.325022,-0.754421,2.837694,0.719165,0.405763,1.496016,-2.533991,0.947494
0.000000,0.85,0.0,-1.570796,0.0,0.0,0.243371,2.327988,-0.754684,2.838573,0.720940,0.402750,1.494506,-2.531290,0.945107
0.000000,0.85,0.0,-1.570796,0.0,0.0,0.241182,2.330951,-0.754947,2.839451,0.722717,0.399753,1.493002,-2.528582,0.945107
0.000000,0.85,0.0,-1.570796,0.0,0.0,0.238906,2.334045,-0.755222,2.840366,0.724576,0.396636,1.491435,-2.525746,0.942721
0.000000,0.85,0.0,-1.570796,0.0,0.0,0.236771,2.336955,-0.755479,2.841226,0.726329,0.393717,1.489964,-2.523066,0.942721
0.000000,0.85,0.0,-1.570796,0.0,0.0,0.234653,2.339852,-0.755736,2.842082,0.728078,0.390822,1.488504,-2.520389,0.940334
0.000000,0.85,0.0,-1.570796,0.0,0.0,0.230461,2.345618,-0.756248,2.843786,0.731570,0.385099,1.485609,-2.515026,0.940334
0.000000,0.85,0.0,-1.570796,0.0,0.0,0.231172,2.344769,-0.754058,2.843616,0.730674,0.385499,1.488361,-2.515292,0.937947
0.000000,0.85,0.0,-1.570796,0.0,0.0,0.231895,2.343907,-0.751870,2.843442,0.729769,0.385919,1.491118,-2.515567,0.935561
0.000000,0.85,0.0,-1.570796,0.0,0.0,0.232630,2.343032,-0.749672,2.843263,0.728853,0.386354,1.493892,-2.515849,0.935561
0.000000,0.85,0.0,-1.570796,0.0,0.0,0.234894,2.340340,-0.743072,2.842709,0.726064,0.387746,1.502248,-2.516735,0.933174
0.000000,0.85,0.0,-1.570796,0.0,0.0,0.238032,2.336613,-0.734257,2.841920,0.722250,0.389792,1.513470,-2.518000,0.930788
0.000000,0.85,0.0,-1.570796,0.0,0.0,0.239680,2.334658,-0.729724,2.841494,0.720259,0.390904,1.519266,-2.518674,0.923628
0.000000,0.85,0.0,-1.570796,0.0,0.0,0.242210,2.331655,-0.723075,2.840824,0.717257,0.392719,1.527824,-2.519744,0.921241
0.000000,0.85,0.0,-1.570796,0.0,0.0,0.243912,2.329636,-0.718638,2.840364,0.715240,0.393958,1.533548,-2.520467,0.916468
0.000000,0.85,0.0,-1.570796,0.0,0.0,0.244800,2.328581,-0.716417,2.840119,0.714205,0.394638,1.536433,-2.520854,0.914081
0.000000,0.85,0.0,-1.570796,0.0,0.0,0.245684,2.327531,-0.714194,2.839873,0.713172,0.395312,1.539319,-2.521239,0.914081
0.000000,0.85,0.0,-1.570796,0.0,0.0,0.246574,2.326473,-0.711976,2.839623,0.712134,0.396001,1.542204,-2.521629,0.911695
0.000000,0.85,0.0,-1.570796,0.0,0.0,0.247480,2.325396,-0.709742,2.839367,0.711082,0.396710,1.545115,-2.522028,0.909308
0.000000,0.85,0.0,-1.570796,0.0,0.0,0.248394,2.324310,-0.707513,2.839106,0.710026,0.397434,1.548025,-2.522432,0.909308
0.000000,0.85,0.0,-1.570796,0.0,0.0,0.250233,2.322121,-0.703056,2.838575,0.707903,0.398907,1.553853,-2.523251,0.906921
0.000000,0.85,0.0,-1.570796,0.0,0.0,0.252144,2.319841,-0.698582,2.838010,0.705727,0.400500,1.559742,-2.524119,0.904535
0.000000,0.85,0.0,-1.570796,0.0,0.0,0.249988,2.322908,-0.698792,2.839074,0.707502,0.397328,1.558199,-2.521362,0.902148
0.000000,0.85,0.0,-1.570796,0.0,0.0,0.245732,2.328987,-0.699207,2.841180,0.711030,0.391069,1.555145,-2.515875,0.899761
0.000000,0.85,0.0,-1.570796,0.0,0.0,0.241619,2.334935,-0.699613,2.843247,0.714516,0.385033,1.552189,-2.510407,0.897375
0.000000,0.85,0.0,-1.570796,0.0,0.0,0.237509,2.340885,-0.700013,2.845297,0.718005,0.379008,1.549231,-2.504956,0.897375
0.000000,0.85,0.0,-1.570796,0.0,0.0,0.235515,2.343807,-0.700213,2.846300,0.719723,0.376084,1.547778,-2.502259,0.894988
0.000000,0.85,0.0,-1.570796,0.0,0.0,0.229599,2.352511,-0.700793,2.849304,0.724884,0.367435,1.543510,-2.494110,0.892601
0.000000,0.85,0.0,-1.570796,0.0,0.0,0.227544,2.355551,-0.700993,2.850343,0.726689,0.364436,1.542022,-2.491265,0.890215
0.000000,0.85,0.0,-1.570796,0.0,0.0,0.225611,2.358427,-0.701183,2.851324,0.728399,0.361613,1.540615,-2.488562,0.890215
0.000000,0.85,0.0,-1.570796,0.0,0.0,0.223693,2.361289,-0.701371,2.852299,0.730104,0.358816,1.539220,-2.485863,0.890215
0.000000,0.85,0.0,-1.570796,0.0,0.0,0.221798,2.364128,-0.701558,2.853266,0.731799,0.356053,1.537839,-2.483176,0.887828
0.000000,0.85,0.0,-1.570796,0.0,0.0,0.222693,2.363142,-0.699312,2.853024,0.730700,0.356702,1.540755,-2.483573,0.887828
0.000000,0.85,0.0,-1.570796,0.0,0.0,0.224504,2.361142,-0.694820,2.852530,0.728486,0.358036,1.546601,-2.484381,0.885442
0.000000,0.85,0.0,-1.570796,0.0,0.0,0.225445,2.360097,-0.692567,2.852267,0.727350,0.358760,1.549552,-2.484810,0.883055
0.000000,0.85,0.0,-1.570796,0.0,0.0,0.227312,2.358027,-0.688064,2.851742,0.725090,0.360188,1.555444,-2.485659,0.880668
0.000000,0.85,0.0,-1.570796,0.0,0.0,0.228282,2.356946,-0.685804,2.851462,0.723931,0.360961,1.558420,-2.486108,0.878282
0.000000,0.85,0.0,-1.570796,0.0,0.0,0.229245,2.355873,-0.683549,2.851183,0.722777,0.361727,1.561387,-2.486554,0.875895
0.000000,0.85,0.0,-1.570796,0.0,0.0,0.230219,2.354786,-0.681289,2.850898,0.721613,0.362511,1.564368,-2.487007,0.875895
0.000000,0.85,0.0,-1.570796,0.0,0.0,0.231258,2.353624,-0.678897,2.850591,0.720375,0.363356,1.567527,-2.487493,0.873508
0.000000,0.85,0.0,-1.570796,0.0,0.0,0.231238,2.353655,-0.678899,2.850602,0.720393,0.363326,1.567512,-2.487464,0.871122
0.000000,0.85,0.0,-1.570796,0.0,0.0,0.229326,2.356560,-0.679066,2.851651,0.722101,0.360452,1.566099,-2.484745,0.871122
0.000000,0.85,0.0,-1.570796,0.0,0.0,0.221888,2.367981,-0.679721,2.855793,0.728845,0.349275,1.560583,-2.473915,0.871122
0.000000,0.85,0.0,-1.570796,0.0,0.0,0.216474,2.376409,-0.680193,2.858827,0.733851,0.341157,1.556551,-2.465837,0.868735
0.000000,0.85,0.0,-1.570796,0.0,0.0,0.211189,2.384735,-0.680653,2.861813,0.738815,0.333243,1.552601,-2.457778,0.866348
0.000000,0.85,0.0,-1.570796,0.0,0.0,0.207639,2.390387,-0.680959,2.863829,0.742194,0.327937,1.549941,-2.452266,0.863962
0.000000,0.85,0.0,-1.570796,0.0,0.0,0.204247,2.395831,-0.681251,2.865760,0.745454,0.322871,1.547393,-2.446931,0.863962
0.000000,0.85,0.0,-1.570796,0.0,0.0,0.202569,2.398542,-0.681396,2.866721,0.747080,0.320367,1.546131,-2.444259,0.861575
0.000000,0.85,0.0,-1.570796,0.0,0.0,0.199257,2.403934,-0.681681,2.868632,0.750317,0.315424,1.543632,-2.438914,0.861575
0.000000,0.85,0.0,-1.570796,0.0,0.0,0.200171,2.403007,-0.679430,2.868390,0.749143,0.316063,1.546568,-2.439330,0.859189
0.000000,0.85,0.0,-1.570796,0.0,0.0,0.201097,2.402065,-0.677180,2.868142,0.747959,0.316721,1.549509,-2.439755,0.859189
0.000000,0.85,0.0,-1.570796,0.0,0.0,0.202033,2.401110,-0.674924,2.867888,0.746766,0.317396,1.552462,-2.440187,0.856802
0.000000,0.85,0.0,-1.570796,0.0,0.0,0.202975,2.400147,-0.672670,2.867630,0.745567,0.318083,1.555418,-2.440624,0.854415
0.000000,0.85,0.0,-1.570796,0.0,0.0,0.203930,2.399169,-0.670407,2.867366,0.744357,0.318788,1.558390,-2.441070,0.854415
0.000000,0.85,0.0,-1.570796,0.0,0.0,0.204890,2.398183,-0.668151,2.867098,0.743143,0.319505,1.561359,-2.441520,0.852029
0.000000,0.85,0.0,-1.570796,0.0,0.0,0.206827,2.396191,-0.663626,2.866551,0.740698,0.320964,1.567321,-2.442433,0.852029
0.000000,0.85,0.0,-1.570796,0.0,0.0,0.207830,2.395151,-0.661354,2.866260,0.739446,0.321751,1.570331,-2.442914,0.847255
0.000000,0.85,0.0,-1.570796,0.0,0.0,0.208884,2.394059,-0.658959,2.865953,0.738129,0.322574,1.573505,-2.443418,0.847255
0.000000,0.85,0.0,-1.570796,0.0,0.0,0.209892,2.393011,-0.656685,2.865656,0.736871,0.323372,1.576522,-2.443903,0.844869
0.000000,0.85,0.0,-1.570796,0.0,0.0,0.210908,2.391954,-0.654414,2.865354,0.735607,0.324184,1.579542,-2.444394,0.842482
0.000000,0.85,0.0,-1.570796,0.0,0.0,0.211934,2.390883,-0.652138,2.865045,0.734334,0.325014,1.582574,-2.444893,0.842482
0.000000,0.85,0.0,-1.570796,0.0,0.0,0.212966,2.389803,-0.649867,2.864731,0.733058,0.325857,1.585604,-2.445397,0.840095
0.000000,0.85,0.0,-1.570796,0.0,0.0,0.214010,2.388708,-0.647587,2.864410,0.731769,0.326719,1.588652,-2.445909,0.837709
0.000000,0.85,0.0,-1.570796,0.0,0.0,0.215062,2.387601,-0.645308,2.864083,0.730474,0.327597,1.591705,-2.446427,0.837709
0.000000,0.85,0.0,-1.570796,0.0,0.0,0.216125,2.386481,-0.643024,2.863750,0.729169,0.328494,1.594769,-2.446953,0.835322
0.000000,0.85,0.0,-1.570796,0.0,0.0,0.216101,2.386521,-0.643025,2.863766,0.729193,0.328455,1.594750,-2.446913,0.832936
0.000000,0.85,0.0,-1.570796,0.0,0.0,0.214426,2.389307,-0.643134,2.864850,0.730826,0.325815,1.593450,-2.444209,0.832936
0.000000,0.85,0.0,-1.570796,0.0,0.0,0.212779,2.392065,-0.643241,2.865923,0.732445,0.323217,1.592168,-2.441518,0.832936
0.000000,0.85,0.0,-1.570796,0.0,0.0,0.209529,2.397546,-0.643450,2.868055,0.735668,0.318092,1.589631,-2.436135,0.832936
0.000000,0.85,0.0,-1.570796,0.0,0.0,0.207912,2.400285,-0.643553,2.869115,0.737280,0.315543,1.588368,-2.433442,0.832936
0.000000,0.85,0.0,-1.570796,0.0,0.0,0.208958,2.399209,-0.641269,2.868794,0.735969,0.316397,1.591424,-2.433958,0.830549
0.000000,0.85,0.0,-1.570796,0.0,0.0,0.212172,2.395875,-0.634404,2.867789,0.731977,0.319089,1.600649,-2.435560,0.830549
0.000000,0.85,0.0,-1.570796,0.0,0.0,0.214361,2.393591,-0.629811,2.867085,0.729273,0.320968,1.606849,-2.436662,0.825776
0.000000,0.85,0.0,-1.570796,0.0,0.0,0.215462,2.392439,-0.627517,2.866724,0.727915,0.321925,1.609952,-2.437219,0.823389
0.000000,0.85,0.0,-1.570796,0.0,0.0,0.216580,2.391264,-0.625214,2.866353,0.726542,0.322910,1.613076,-2.437788,0.821002
0.000000,0.85,0.0,-1.570796,0.0,0.0,0.217772,2.390008,-0.622778,2.865954,0.725082,0.323970,1.616387,-2.438397,0.818616
0.000000,0.85,0.0,-1.570796,0.0,0.0,0.218907,2.388807,-0.620476,2.865568,0.723694,0.324991,1.619522,-2.438981,0.818616
0.000000,0.85,0.0,-1.570796,0.0,0.0,0.220054,2.387590,-0.618168,2.865175,0.722296,0.326032,1.622673,-2.439572,0.816229
0.000000,0.85,0.0,-1.570796,0.0,0.0,0.221209,2.386362,-0.615861,2.864774,0.720893,0.327090,1.625826,-2.440169,0.813842
0.000000,0.85,0.0,-1.570796,0.0,0.0,0.223555,2.383851,-0.611237,2.863948,0.718054,0.329275,1.632170,-2.441391,0.813842
0.000000,0.85,0.0,-1.570796,0.0,0.0,0.224735,2.382585,-0.608921,2.863526,0.716627,0.330385,1.635353,-2.442008,0.809069
0.000000,0.85,0.0,-1.570796,0.0,0.0,0.225929,2.381300,-0.606606,2.863093,0.715190,0.331522,1.638543,-2.442635,0.809069
0.000000,0.85,0.0,-1.570796,0.0,0.0,0.227134,2.379997,-0.604284,2.862650,0.713743,0.332681,1.641749,-2.443271,0.806683
0.000000,0.85,0.0,-1.570796,0.0,0.0,0.228348,2.378681,-0.601965,2.862200,0.712289,0.333859,1.644959,-2.443913,0.804296
0.000000,0.85,0.0,-1.570796,0.0,0.0,0.226712,2.381515,-0.602030,2.863419,0.713911,0.331107,1.643635,-2.441192,0.804296
0.000000,0.85,0.0,-1.570796,0.0,0.0,0.225105,2.384317,-0.602093,2.864622,0.715517,0.328404,1.642331,-2.438487,0.801909
0.000000,0.85,0.0,-1.570796,0.0,0.0,0.223505,2.387120,-0.602154,2.865825,0.717127,0.325712,1.641030,-2.435771,0.801909
0.000000,0.85,0.0,-1.570796,0.0,0.0,0.221920,2.389910,-0.602213,2.867019,0.718731,0.323046,1.639739,-2.433059,0.801909
0.000000,0.85,0.0,-1.570796,0.0,0.0,0.223124,2.388627,-0.599884,2.866579,0.717264,0.324189,1.642956,-2.433696,0.801909
0.000000,0.85,0.0,-1.570796,0.0,0.0,0.228074,2.383302,-0.590529,2.864727,0.711273,0.328985,1.655952,-2.436394,0.799523
0.000000,0.85,0.0,-1.570796,0.0,0.0,0.233186,2.377703,-0.581139,2.862732,0.705171,0.334188,1.669111,-2.439109,0.794749
0.000000,0.85,0.0,-1.570796,0.0,0.0,0.234560,2.376194,-0.578648,2.862176,0.703535,0.335606,1.672618,-2.439859,0.787589
0.000000,0.85,0.0,-1.570796,0.0,0.0,0.237205,2.373265,-0.573931,2.861083,0.700400,0.338381,1.679291,-2.441333,0.785203
0.000000,0.85,0.0,-1.570796,0.0,0.0,0.238536,2.371787,-0.571569,2.860525,0.698827,0.339795,1.682638,-2.442067,0.782816
0.000000,0.85,0.0,-1.570796,0.0,0.0,0.239881,2.370285,-0.569207,2.859952,0.697243,0.341240,1.685997,-2.442816,0.780430
0.000000,0.85,0.0,-1.570796,0.0,0.0,0.241239,2.368764,-0.566839,2.859367,0.695648,0.342712,1.689372,-2.443575,0.780430
0.000000,0.85,0.0,-1.570796,0.0,0.0,0.242606,2.367227,-0.564472,2.858771,0.694047,0.344207,1.692754,-2.444342,0.778043
0.000000,0.85,0.0,-1.570796,0.0,0.0,0.243984,2.365672,-0.562103,2.858164,0.692438,0.345727,1.696146,-2.445117,0.775656
0.000000,0.85,0.0,-1.570796,0.0,0.0,0.245375,2.364095,-0.559727,2.857543,0.690817,0.347277,1.699556,-2.445902,0.775656
0.000000,0.85,0.0,-1.570796,0.0,0.0,0.246775,2.362504,-0.557352,2.856911,0.689190,0.348850,1.702972,-2.446694,0.773270
0.000000,0.85,0.0,-1.570796,0.0,0.0,0.248182,2.360901,-0.554974,2.856270,0.687559,0.350442,1.706398,-2.447488,0.770883
0.000000,0.85,0.0,-1.570796,0.0,0.0,0.249607,2.359269,-0.552590,2.855611,0.685913,0.352073,1.709843,-2.448300,0.770883
0.000000,0.85,0.0,-1.570796,0.0,0.0,0.252496,2.355937,-0.547817,2.854252,0.682588,0.355419,1.716771,-2.449967,0.768496
0.000000,0.85,0.0,-1.570796,0.0,0.0,0.253947,2.354259,-0.545432,2.853558,0.680926,0.357121,1.720240,-2.450795,0.766110
0.000000,0.85,0.0,-1.570796,0.0,0.0,0.255419,2.352547,-0.543036,2.852844,0.679245,0.358866,1.723737,-2.451644,0.763723
0.000000,0.85,0.0,-1.570796,0.0,0.0,0.256900,2.350818,-0.540642,2.852116,0.677559,0.360639,1.727240,-2.452501,0.761337
0.000000,0.85,0.0,-1.570796,0.0,0.0,0.258395,2.349066,-0.538242,2.851373,0.675862,0.362444,1.730761,-2.453368,0.761337
0.000000,0.85,0.0,-1.570796,0.0,0.0,0.259900,2.347296,-0.535843,2.850615,0.674160,0.364277,1.734288,-2.454243,0.758950
0.000000,0.85,0.0,-1.570796,0.0,0.0,0.260000,2.347174,-0.535693,2.850562,0.674048,0.364404,1.734514,-2.454307,0.756563
0.000000,0.85,0.0,-1.570796,0.0,0.0,0.263053,2.343561,-0.530880,2.849000,0.670609,0.368166,1.741620,-2.456100,0.756563
0.000000,0.85,0.0,-1.570796,0.0,0.0,0.266156,2.339838,-0.526059,2.847378,0.667162,0.372119,1.748779,-2.457836,0.754177
0.000000,0.85,0.0,-1.570796,0.0,0.0,0.269306,2.336052,-0.521226,2.845684,0.663661,0.376143,1.755988,-2.459707,0.749403
0.000000,0.85,0.0,-1.570796,0.0,0.0,0.270893,2.334137,-0.518806,2.844815,0.661909,0.378198,1.759606,-2.460641,0.747017
0.000000,0.85,0.0,-1.570796,0.0,0.0,0.272503,2.332183,-0.516376,2.843919,0.660137,0.380306,1.763253,-2.461599,0.744630
0.000000,0.85,0.0,-1.570796,0.0,0.0,0.275767,2.328193,-0.511511,2.842071,0.656563,0.384632,1.770593,-2.463566,0.744630
0.000000,0.85,0.0,-1.570796,0.0,0.0,0.277407,2.326184,-0.509077,2.841126,0.654779,0.386833,1.774269,-2.464542,0.739857
0.000000,0.85,0.0,-1.570796,0.0,0.0,0.280752,2.322026,-0.504195,2.839163,0.651186,0.391445,1.781695,-2.466480,0.739857
0.000000,0.85,0.0,-1.570796,0.0,0.0,0.282436,2.319938,-0.501746,2.838154,0.649378,0.393767,1.785423,-2.467489,0.735084
0.000000,0.85,0.0,-1.570796,0.0,0.0,0.285866,2.315645,-0.496835,2.836057,0.645713,0.398565,1.792950,-2.469589,0.732697
0.000000,0.85,0.0,-1.570796,0.0,0.0,0.287694,2.313352,-0.494228,2.834918,0.643777,0.401155,1.796949,-2.470694,0.730310
0.000000,0.85,0.0,-1.570796,0.0,0.0,0.289445,2.311143,-0.491759,2.833810,0.641933,0.403665,1.800753,-2.471762,0.727924
0.000000,0.85,0.0,-1.570796,0.0,0.0,0.291209,2.308907,-0.489287,2.832678,0.640084,0.406216,1.804572,-2.472841,0.727924
0.000000,0.85,0.0,-1.570796,0.0,0.0,0.294781,2.304355,-0.484330,2.830340,0.636368,0.411454,1.812258,-2.475034,0.725537
0.000000,0.85,0.0,-1.570796,0.0,0.0,0.296597,2.302004,-0.481849,2.829127,0.634520,0.414209,1.816130,-2.476078,0.723150
0.000000,0.85,0.0,-1.570796,0.0,0.0,0.298416,2.299669,-0.479356,2.827900,0.632654,0.416932,1.820013,-2.477193,0.720764
0.000000,0.85,0.0,-1.570796,0.0,0.0,0.300254,2.297295,-0.476863,2.826639,0.630779,0.419713,1.823912,-2.478330,0.718377
0.000000,0.85,0.0,-1.570796,0.0,0.0,0.302113,2.294885,-0.474358,2.825347,0.628894,0.422553,1.827840,-2.479484,0.718377
0.000000,0.85,0.0,-1.570796,0.0,0.0,0.303983,2.292451,-0.471854,2.824029,0.627009,0.425435,1.831776,-2.480647,0.715990
0.000000,0.85,0.0,-1.570796,0.0,0.0,0.307794,2.287457,-0.466818,2.821293,0.623197,0.431379,1.839738,-2.483050,0.713604
0.000000,0.85,0.0,-1.570796,0.0,0.0,0.309714,2.284913,-0.464300,2.819886,0.621325,0.434471,1.843726,-2.484172,0.711217
0.000000,0.85,0.0,-1.570796,0.0,0.0,0.311644,2.282370,-0.461771,2.818453,0.619433,0.437550,1.847729,-2.485374,0.708831
0.000000,0.85,0.0,-1.570796,0.0,0.0,0.313604,2.279773,-0.459230,2.816974,0.617526,0.440711,1.851770,-2.486607,0.708831
0.000000,0.85,0.0,-1.570796,0.0,0.0,0.315553,2.277179,-0.456719,2.815482,0.615647,0.443890,1.855772,-2.487826,0.706444
0.000000,0.85,0.0,-1.570796,0.0,0.0,0.317523,2.274548,-0.454197,2.813953,0.613763,0.447133,1.859801,-2.489061,0.704057
0.000000,0.85,0.0,-1.570796,0.0,0.0,0.319504,2.271893,-0.451675,2.812393,0.611883,0.450423,1.863835,-2.490306,0.704057
0.000000,0.85,0.0,-1.570796,0.0,0.0,0.323528,2.266467,-0.446610,2.809172,0.608109,0.457190,1.871977,-2.492839,0.701671
0.000000,0.85,0.0,-1.570796,0.0,0.0,0.325571,2.263701,-0.444055,2.807494,0.606222,0.460677,1.876088,-2.494132,0.699284
0.000000,0.85,0.0,-1.570796,0.0,0.0,0.327629,2.260907,-0.441499,2.805780,0.604340,0.464220,1.880210,-2.495436,0.696897
0.000000,0.85,0.0,-1.570796,0.0,0.0,0.329702,2.258085,-0.438939,2.804029,0.602465,0.467820,1.884343,-2.496753,0.694511
0.000000,0.85,0.0,-1.570796,0.0,0.0,0.329823,2.257921,-0.438790,2.803926,0.602356,0.468032,1.884583,-2.496830,0.694511
0.000000,0.85,0.0,-1.570796,0.0,0.0,0.334047,2.252132,-0.433628,2.800292,0.598585,0.475468,1.892953,-2.499519,0.694511
0.000000,0.85,0.0,-1.570796,0.0,0.0,0.336185,2.249194,-0.431032,2.798404,0.596714,0.479286,1.897162,-2.500887,0.689737
0.000000,0.85,0.0,-1.570796,0.0,0.0,0.338334,2.246233,-0.428438,2.796478,0.594857,0.483157,1.901374,-2.502265,0.689737
0.000000,0.85,0.0,-1.570796,0.0,0.0,0.340521,2.243211,-0.425812,2.794489,0.592990,0.487133,1.905643,-2.503671,0.687351
0.000000,0.85,0.0,-1.570796,0.0,0.0,0.342718,2.240169,-0.423189,2.792461,0.591140,0.491162,1.909910,-2.505087,0.684964
0.000000,0.85,0.0,-1.570796,0.0,0.0,0.344728,2.236554,-0.423149,2.789756,0.589699,0.495878,1.911769,-2.508120,0.684964
0.000000,0.85,0.0,-1.570796,0.0,0.0,0.346767,2.232918,-0.423095,2.787024,0.588279,0.500655,1.913642,-2.511149,0.684964
0.000000,0.85,0.0,-1.570796,0.0,0.0,0.348847,2.229234,-0.423028,2.784241,0.586866,0.505524,1.915541,-2.514209,0.682578
0.000000,0.85,0.0,-1.570796,0.0,0.0,0.350948,2.225538,-0.422948,2.781435,0.585475,0.510434,1.917448,-2.517269,0.682578
0.000000,0.85,0.0,-1.570796,0.0,0.0,0.353088,2.221803,-0.422853,2.778586,0.584101,0.515432,1.919378,-2.520340,0.682578
0.000000,0.85,0.0,-1.570796,0.0,0.0,0.355244,2.218060,-0.422744,2.775713,0.582749,0.520462,1.921312,-2.523421,0.682578
0.000000,0.85,0.0,-1.570796,0.0,0.0,0.359759,2.210290,-0.422490,2.769718,0.580011,0.530981,1.925334,-2.529773,0.682578
0.000000,0.85,0.0,-1.570796,0.0,0.0,0.362003,2.206475,-0.422334,2.766736,0.578724,0.536199,1.927311,-2.532888,0.680191
0.000000,0.85,0.0,-1.570796,0.0,0.0,0.364277,2.202635,-0.422163,2.763716,0.577462,0.541482,1.929303,-2.536015,0.680191
0.000000,0.85,0.0,-1.570796,0.0,0.0,0.366694,2.199261,-0.419386,2.761294,0.575851,0.546141,1.933715,-2.537584,0.680191
0.000000,0.85,0.0,-1.570796,0.0,0.0,0.371621,2.192357,-0.413781,2.756264,0.572658,0.555752,1.942643,-2.540791,0.677804
0.000000,0.85,0.0,-1.570796,0.0,0.0,0.376634,2.185323,-0.408128,2.750980,0.569565,0.565693,1.951636,-2.544077,0.675418
0.000000,0.85,0.0,-1.570796,0.0,0.0,0.381771,2.178110,-0.402379,2.745389,0.566566,0.576048,1.960760,-2.547469,0.673031
0.000000,0.85,0.0,-1.570796,0.0,0.0,0.384388,2.174447,-0.399456,2.742454,0.565122,0.581389,1.965372,-2.549213,0.668258
0.000000,0.85,0.0,-1.570796,0.0,0.0,0.384540,2.174234,-0.399286,2.742280,0.565040,0.581702,1.965640,-2.549315,0.668258
0.000000,0.85,0.0,-1.570796,0.0,0.0,0.387169,2.170557,-0.396359,2.739279,0.563640,0.587114,1.970248,-2.551075,0.668258
0.000000,0.85,0.0,-1.570796,0.0,0.0,0.389843,2.166820,-0.393392,2.736176,0.562267,0.592660,1.974910,-2.552872,0.665871
0.000000,0.85,0.0,-1.570796,0.0,0.0,0.392537,2.163059,-0.390411,2.732996,0.560937,0.598292,1.979583,-2.554692,0.663484
0.000000,0.85,0.0,-1.570796,0.0,0.0,0.395264,2.159258,-0.387402,2.729723,0.559645,0.604035,1.984288,-2.556542,0.663484
0.000000,0.85,0.0,-1.570796,0.0,0.0,0.400809,2.151522,-0.381329,2.722934,0.557156,0.615839,1.993784,-2.560322,0.661098
0.000000,0.85,0.0,-1.570796,0.0,0.0,0.403646,2.147593,-0.378218,2.719349,0.555995,0.621946,1.998602,-2.562278,0.658711
0.000000,0.85,0.0,-1.570796,0.0,0.0,0.406485,2.143674,-0.375110,2.715698,0.554897,0.628101,2.003397,-2.564247,0.656325
0.000000,0.85,0.0,-1.570796,0.0,0.0,0.409379,2.139692,-0.371946,2.711912,0.553846,0.634418,2.008259,-2.566265,0.653938
0.000000,0.85,0.0,-1.570796,0.0,0.0,0.406840,2.143628,-0.372390,2.716034,0.554412,0.628087,2.006086,-2.562897,0.653938
0.000000,0.85,0.0,-1.570796,0.0,0.0,0.409413,2.139614,-0.371967,2.711882,0.553794,0.634508,2.008299,-2.566297,0.653938
0.000000,0.85,0.0,-1.570796,0.0,0.0,0.417310,2.127475,-0.370623,2.699179,0.552149,0.654136,2.015028,-2.576543,0.653938
0.000000,0.85,0.0,-1.570796,0.0,0.0,0.422773,2.119327,-0.369559,2.690326,0.551388,0.667625,2.019590,-2.583529,0.651551
0.000000,0.85,0.0,-1.570796,0.0,0.0,0.428479,2.111008,-0.368362,2.681033,0.550872,0.681645,2.024293,-2.590738,0.651551
0.000000,0.85,0.0,-1.570796,0.0,0.0,0.431347,2.106919,-0.367713,2.676325,0.550746,0.688660,2.026628,-2.594339,0.649165
0.000000,0.85,0.0,-1.570796,0.0,0.0,0.434242,2.102841,-0.367036,2.671556,0.550690,0.695724,2.028971,-2.597955,0.649165
0.000000,0.85,0.0,-1.570796,0.0,0.0,0.437175,2.098763,-0.366331,2.666708,0.550704,0.702862,2.031332,-2.601600,0.649165
0.000000,0.85,0.0,-1.570796,0.0,0.0,0.440347,2.094677,-0.362893,2.662095,0.550427,0.709910,2.036296,-2.603929,0.646778
0.000000,0.85,0.0,-1.570796,0.0,0.0,0.443557,2.090576,-0.359415,2.657338,0.550232,0.717080,2.041299,-2.606305,0.646778
0.000000,0.85,0.0,-1.570796,0.0,0.0,0.446772,2.086508,-0.355930,2.652483,0.550125,0.724295,2.046289,-2.608706,0.644391
0.000000,0.85,0.0,-1.570796,0.0,0.0,0.450058,2.082393,-0.352368,2.647428,0.550105,0.731702,2.051368,-2.611180,0.642005
0.000000,0.85,0.0,-1.570796,0.0,0.0,0.453333,2.078335,-0.348816,2.642291,0.550178,0.739117,2.056410,-2.613668,0.642005
0.000000,0.85,0.0,-1.570796,0.0,0.0,0.460053,2.070097,-0.341570,2.631531,0.550551,0.754412,2.066696,-2.618820,0.639618
0.000000,0.85,0.0,-1.570796,0.0,0.0,0.463464,2.066028,-0.337861,2.625864,0.550923,0.762224,2.071893,-2.621485,0.637232
0.000000,0.85,0.0,-1.570796,0.0,0.0,0.466883,2.062011,-0.334142,2.620076,0.551398,0.770075,2.077084,-2.624182,0.634845
0.000000,0.85,0.0,-1.570796,0.0,0.0,0.467083,2.061780,-0.333922,2.619731,0.551430,0.770535,2.077387,-2.624341,0.632458
0.000000,0.85,0.0,-1.570796,0.0,0.0,0.474081,2.053685,-0.326352,2.607618,0.552656,0.786670,2.087961,-2.629920,0.632458
0.000000,0.85,0.0,-1.570796,0.0,0.0,0.477628,2.049729,-0.322480,2.601246,0.553476,0.794879,2.093302,-2.632805,0.630072
0.000000,0.85,0.0,-1.570796,0.0,0.0,0.481195,2.045829,-0.318582,2.594711,0.554410,0.803150,2.098662,-2.635736,0.627685
0.000000,0.85,0.0,-1.570796,0.0,0.0,0.484795,2.041974,-0.314643,2.587984,0.555463,0.811512,2.104063,-2.638726,0.627685
0.000000,0.85,0.0,-1.570796,0.0,0.0,0.488426,2.038174,-0.310666,2.581066,0.556637,0.819954,2.109502,-2.641773,0.625298
0.000000,0.85,0.0,-1.570796,0.0,0.0,0.492102,2.034418,-0.306634,2.573922,0.557938,0.828510,2.115002,-2.644891,0.622912
0.000000,0.85,0.0,-1.570796,0.0,0.0,0.495797,2.030742,-0.302579,2.566601,0.559360,0.837111,2.120526,-2.648058,0.622912
0.000000,0.85,0.0,-1.570796,0.0,0.0,0.499520,2.027138,-0.298488,2.559075,0.560907,0.845781,2.126090,-2.651285,0.620525
0.000000,0.85,0.0,-1.570796,0.0,0.0,0.502802,2.024040,-0.297319,2.551861,0.562685,0.853798,2.128775,-2.655552,0.620525
0.000000,0.85,0.0,-1.570796,0.0,0.0,0.509495,2.017930,-0.294940,2.537096,0.566479,0.870013,2.134255,-2.664208,0.618138
0.000000,0.85,0.0,-1.570796,0.0,0.0,0.512879,2.015021,-0.293706,2.529510,0.568545,0.878141,2.137028,-2.668595,0.618138
0.000000,0.85,0.0,-1.570796,0.0,0.0,0.527016,2.003433,-0.288716,2.497849,0.577559,0.911608,2.148674,-2.686687,0.615752
0.000000,0.85,0.0,-1.570796,0.0,0.0,0.530907,2.000558,-0.284502,2.489064,0.580023,0.920417,2.154455,-2.690308,0.613365
0.000000,0.85,0.0,-1.570796,0.0,0.0,0.538699,1.995069,-0.276124,2.471075,0.585174,0.938053,2.166042,-2.697683,0.610979
0.000000,0.85,0.0,-1.570796,0.0,0.0,0.542908,1.992470,-0.271695,2.461131,0.588189,0.947314,2.172399,-2.701564,0.608592
0.000000,0.85,0.0,-1.570796,0.0,0.0,0.546873,1.990143,-0.267432,2.451413,0.591114,0.956211,2.178385,-2.705401,0.606205
0.000000,0.85,0.0,-1.570796,0.0,0.0,0.550871,1.987962,-0.263145,2.441413,0.594164,0.965154,2.184449,-2.709307,0.606205
0.000000,0.85,0.0,-1.570796,0.0,0.0,0.554873,1.985948,-0.258863,2.431195,0.597314,0.974078,2.190552,-2.713253,0.603819
0.000000,0.85,0.0,-1.570796,0.0,0.0,0.558880,1.984108,-0.254590,2.420752,0.600565,0.982980,2.196698,-2.717241,0.603819
0.000000,0.85,0.0,-1.570796,0.0,0.0,0.563198,1.982353,-0.250110,2.409431,0.604156,0.992310,2.203402,-2.721444,0.601432
0.000000,0.85,0.0,-1.570796,0.0,0.0,0.563435,1.982266,-0.249858,2.408788,0.604359,0.992832,2.203772,-2.721682,0.599045
0.000000,0.85,0.0,-1.570796,0.0,0.0,0.567488,1.980799,-0.245567,2.397753,0.607841,1.001758,2.210074,-2.725794,0.599045
0.000000,0.85,0.0,-1.570796,0.0,0.0,0.571541,1.979530,-0.241291,2.386484,0.611415,1.010644,2.216422,-2.729942,0.599045
0.000000,0.85,0.0,-1.570796,0.0,0.0,0.575620,1.978457,-0.237006,2.374902,0.615100,1.019544,2.222859,-2.734153,0.596659
0.000000,0.85,0.0,-1.570796,0.0,0.0,0.579725,1.977592,-0.232712,2.362996,0.618895,1.028454,2.229388,-2.738428,0.594272
0.000000,0.85,0.0,-1.570796,0.0,0.0,0.583238,1.977204,-0.231491,2.352538,0.622491,1.036214,2.232776,-2.743293,0.594272
0.000000,0.85,0.0,-1.570796,0.0,0.0,0.590360,1.976725,-0.229094,2.331156,0.629880,1.051789,2.239732,-2.753126,0.594272
0.000000,0.85,0.0,-1.570796,0.0,0.0,0.593927,1.976787,-0.227905,2.320148,0.633688,1.059537,2.243286,-2.758075,0.591885
0.000000,0.85,0.0,-1.570796,0.0,0.0,0.601170,1.977250,-0.225576,2.297573,0.641519,1.075118,2.250604,-2.768097,0.589499
0.000000,0.85,0.0,-1.570796,0.0,0.0,0.605011,1.977856,-0.224359,2.285223,0.645790,1.083336,2.254576,-2.773444,0.589499
0.000000,0.85,0.0,-1.570796,0.0,0.0,0.608634,1.978620,-0.223231,2.273383,0.649877,1.091054,2.258377,-2.778497,0.587112
0.000000,0.85,0.0,-1.570796,0.0,0.0,0.619735,1.981573,-0.220001,2.236721,0.662543,1.114389,2.270255,-2.793902,0.587112
0.000000,0.85,0.0,-1.570796,0.0,0.0,0.623396,1.983168,-0.218954,2.223895,0.666906,1.122078,2.274339,-2.799058,0.584726
0.000000,0.85,0.0,-1.570796,0.0,0.0,0.627044,1.984987,-0.217935,2.210863,0.671318,1.129719,2.278477,-2.804215,0.582339
0.000000,0.85,0.0,-1.570796,0.0,0.0,0.631167,1.987095,-0.214017,2.195572,0.675989,1.138065,2.285969,-2.808836,0.582339
0.000000,0.85,0.0,-1.570796,0.0,0.0,0.639457,1.992099,-0.206292,2.163921,0.685531,1.154663,2.301278,-2.818235,0.579952
0.000000,0.85,0.0,-1.570796,0.0,0.0,0.643501,1.995378,-0.202457,2.147364,0.690383,1.162746,2.309057,-2.822941,0.577566
0.000000,0.85,0.0,-1.570796,0.0,0.0,0.647489,1.999069,-0.198667,2.130449,0.695262,1.170676,2.316890,-2.827647,0.575179
0.000000,0.85,0.0,-1.570796,0.0,0.0,0.655459,2.007430,-0.191207,2.095430,0.705179,1.186339,2.332884,-2.837203,0.575179
0.000000,0.85,0.0,-1.570796,0.0,0.0,0.659286,2.012545,-0.187502,2.077138,0.710173,1.193843,2.340979,-2.841956,0.572792
0.000000,0.85,0.0,-1.570796,0.0,0.0,0.663024,2.018152,-0.183839,2.058467,0.715168,1.201133,2.349112,-2.846696,0.570406
0.000000,0.85,0.0,-1.570796,0.0,0.0,0.663237,2.018511,-0.183623,2.057351,0.715461,1.201548,2.349590,-2.846972,0.568019
0.000000,0.85,0.0,-1.570796,0.0,0.0,0.666887,2.024682,-0.179989,2.038204,0.720468,1.208620,2.357789,-2.851713,0.568019
0.000000,0.85,0.0,-1.570796,0.0,0.0,0.670443,2.031412,-0.176379,2.018596,0.725478,1.215465,2.366045,-2.856453,0.568019
0.000000,0.85,0.0,-1.570796,0.0,0.0,0.677444,2.046225,-0.169247,1.977980,0.735568,1.228724,2.382865,-2.866065,0.565632
0.000000,0.85,0.0,-1.570796,0.0,0.0,0.680645,2.054797,-0.165694,1.956979,0.740524,1.234741,2.391240,-2.870769,0.563246
0.000000,0.85,0.0,-1.570796,0.0,0.0,0.683708,2.064023,-0.162147,1.935523,0.745443,1.240429,2.399635,-2.875459,0.563246
0.000000,0.85,0.0,-1.570796,0.0,0.0,0.686633,2.073967,-0.158587,1.913518,0.750334,1.245783,2.408075,-2.880153,0.560859
0.000000,0.85,0.0,-1.570796,0.0,0.0,0.689384,2.084576,-0.155034,1.891148,0.755147,1.250727,2.416480,-2.884813,0.558473
0.000000,0.85,0.0,-1.570796,0.0,0.0,0.691952,2.095862,-0.151481,1.868426,0.759868,1.255234,2.424837,-2.889437,0.558473
0.000000,0.85,0.0,-1.570796,0.0,0.0,0.694355,2.107973,-0.147878,1.845104,0.764539,1.259323,2.433227,-2.894080,0.556086
0.000000,0.85,0.0,-1.570796,0.0,0.0,0.696553,2.120796,-0.144257,1.821455,0.769092,1.262907,2.441541,-2.898689,0.556086
0.000000,0.85,0.0,-1.570796,0.0,0.0,0.698554,2.134446,-0.140578,1.797310,0.773549,1.265983,2.449828,-2.903303,0.553699
0.000000,0.85,0.0,-1.570796,0.0,0.0,0.699954,2.146790,-0.139941,1.776964,0.778009,1.268580,2.454368,-2.908274,0.553699
0.000000,0.85,0.0,-1.570796,0.0,0.0,0.703644,2.186224,-0.138092,1.713916,0.791387,1.275242,2.468223,-2.923470,0.551313
0.000000,0.85,0.0,-1.570796,0.0,0.0,0.704301,2.201008,-0.137356,1.692284,0.795664,1.276299,2.472555,-2.928433,0.548926
0.000000,0.85,0.0,-1.570796,0.0,0.0,0.704765,2.216361,-0.136581,1.670415,0.799881,1.276917,2.476805,-2.933406,0.548926
0.000000,0.85,0.0,-1.570796,0.0,0.0,0.705265,2.234507,-0.132662,1.644548,0.803463,1.276475,2.484367,-2.937906,0.546539
0.000000,0.85,0.0,-1.570796,0.0,0.0,0.706091,2.292622,-0.120483,1.564481,0.813399,1.272436,2.506977,-2.952120,0.546539
0.000000,0.85,0.0,-1.570796,0.0,0.0,0.705574,2.314162,-0.115907,1.537734,0.816129,1.268653,2.513722,-2.956848,0.541766
0.000000,0.85,0.0,-1.570796,0.0,0.0,0.704858,2.336447,-0.111126,1.510858,0.818635,1.264013,2.520250,-2.961692,0.539379
0.000000,0.85,0.0,-1.570796,0.0,0.0,0.703955,2.359573,-0.106094,1.483746,0.820912,1.258474,2.526579,-2.966692,0.539379
0.000000,0.85,0.0,-1.570796,0.0,0.0,0.701850,2.407550,-0.095486,1.429003,0.824744,1.245434,2.538812,-2.977162,0.536993
0.000000,0.85,0.0,-1.570796,0.0,0.0,0.700385,2.434368,-0.089264,1.400079,0.826282,1.236610,2.544701,-2.982952,0.534606
0.000000,0.85,0.0,-1.570796,0.0,0.0,0.698895,2.460333,-0.083053,1.372813,0.827424,1.227331,2.549974,-2.988596,0.534606
0.000000,0.85,0.0,-1.570796,0.0,0.0,0.697330,2.486956,-0.076477,1.345528,0.828250,1.217132,2.554986,-2.994433,0.532220
0.000000,0.85,0.0,-1.570796,0.0,0.0,0.695412,2.510751,-0.073405,1.322215,0.830570,1.207997,2.556590,-3.000895,0.532220
0.000000,0.85,0.0,-1.570796,0.0,0.0,0.693406,2.535396,-0.070042,1.298456,0.832826,1.198068,2.558036,-3.007650,0.532220
0.000000,0.85,0.0,-1.570796,0.0,0.0,0.691349,2.560668,-0.066379,1.274485,0.834989,1.187400,2.559295,-3.014651,0.529833
0.000000,0.85,0.0,-1.570796,0.0,0.0,0.689258,2.586680,-0.062358,1.250210,0.837063,1.175916,2.560358,-3.021945,0.529833
0.000000,0.85,0.0,-1.570796,0.0,0.0,0.687157,2.613462,-0.057921,1.225623,0.839036,1.163565,2.561210,-3.029554,0.527446
0.000000,0.85,0.0,-1.570796,0.0,0.0,0.685012,2.641973,-0.052831,1.199881,0.840951,1.149850,2.561852,-3.037766,0.527446
0.000000,0.85,0.0,-1.570796,0.0,0.0,0.683001,2.670405,-0.047322,1.174660,0.842664,1.135576,2.562215,-3.046073,0.525060
0.000000,0.85,0.0,-1.570796,0.0,0.0,0.681104,2.699681,-0.041146,1.149145,0.844203,1.120280,2.562302,-3.054742,0.525060
0.000000,0.85,0.0,-1.570796,0.0,0.0,0.679370,2.729910,-0.034164,1.123279,0.845525,1.103858,2.562087,-3.063804,0.522673
0.000000,0.85,0.0,-1.570796,0.0,0.0,0.677882,2.760868,-0.026293,1.097298,0.846554,1.086397,2.561543,-3.073175,0.520286
0.000000,0.85,0.0,-1.570796,0.0,0.0,0.680866,2.713876,-0.039077,1.132789,0.845335,1.114824,2.555567,-3.060316,0.520286
0.000000,0.85,0.0,-1.570796,0.0,0.0,0.685039,2.665306,-0.050659,1.169350,0.843425,1.142787,2.549156,-3.048527,0.517900
0.000000,0.85,0.0,-1.570796,0.0,0.0,0.690229,2.617493,-0.060641,1.205066,0.841526,1.168958,2.542700,-3.038325,0.515513
0.000000,0.85,0.0,-1.570796,0.0,0.0,0.696338,2.570696,-0.069254,1.239450,0.839766,1.193210,2.536379,-3.030095,0.515513
0.000000,0.85,0.0,-1.570796,0.0,0.0,0.703188,2.525771,-0.076580,1.271906,0.838951,1.215438,2.530399,-3.023618,0.513126
0.000000,0.85,0.0,-1.570796,0.0,0.0,0.710903,2.481639,-0.082988,1.303031,0.839216,1.236268,2.524748,-3.018966,0.510740
0.000000,0.85,0.0,-1.570796,0.0,0.0,0.719479,2.438413,-0.088584,1.332418,0.840438,1.255576,2.519591,-3.016532,0.508353
0.000000,0.85,0.0,-1.570796,0.0,0.0,0.713781,2.467065,-0.082653,1.311123,0.836608,1.243113,2.520475,-3.016746,0.505967
0.000000,0.85,0.0,-1.570796,0.0,0.0,0.703569,2.525396,-0.069612,1.266930,0.829805,1.216485,2.522772,-3.019448,0.505967
0.000000,0.85,0.0,-1.570796,0.0,0.0,0.699615,2.554705,-0.061986,1.244064,0.827341,1.201879,2.524330,-3.022685,0.503580
0.000000,0.85,0.0,-1.570796,0.0,0.0,0.699170,2.558382,-0.060973,1.241180,0.827068,1.199981,2.524535,-3.023170,0.503580
0.000000,0.85,0.0,-1.570796,0.0,0.0,0.695749,2.587907,-0.052704,1.217997,0.824719,1.184696,2.526180,-3.027167,0.501193
0.000000,0.85,0.0,-1.570796,0.0,0.0,0.692761,2.617774,-0.043790,1.194495,0.822334,1.168759,2.527864,-3.031747,0.501193
0.000000,0.85,0.0,-1.570796,0.0,0.0,0.690220,2.647653,-0.034298,1.171004,0.819814,1.152381,2.529527,-3.036751,0.501193
0.000000,0.85,0.0,-1.570796,0.0,0.0,0.688081,2.677838,-0.024106,1.147361,0.817010,1.135449,2.531154,-3.042114,0.498807
0.000000,0.85,0.0,-1.570796,0.0,0.0,0.686335,2.708358,-0.013157,1.123604,0.813794,1.117987,2.532721,-3.047739,0.498807
0.000000,0.85,0.0,-1.570796,0.0,0.0,0.684989,2.739054,-0.001458,1.099914,0.810059,1.100136,2.534202,-3.053491,0.496420
0.000000,0.85,0.0,-1.570796,0.0,0.0,0.688121,2.699982,-0.012353,1.126694,0.811070,1.123469,2.529990,-3.045267,0.496420
0.000000,0.85,0.0,-1.570796,0.0,0.0,0.695872,2.623430,-0.031652,1.178287,0.811753,1.168256,2.521657,-3.031078,0.494033
0.000000,0.85,0.0,-1.570796,0.0,0.0,0.700907,2.585502,-0.039994,1.203101,0.812616,1.189744,2.517738,-3.025243,0.491647
0.000000,0.85,0.0,-1.570796,0.0,0.0,0.706598,2.547997,-0.047659,1.226936,0.813700,1.210538,2.514061,-3.020635,0.489260
0.000000,0.85,0.0,-1.570796,0.0,0.0,0.712802,2.511886,-0.054530,1.249141,0.815285,1.230165,2.510775,-3.017297,0.486874
0.000000,0.85,0.0,-1.570796,0.0,0.0,0.719825,2.475380,-0.061028,1.270706,0.817512,1.249587,2.507768,-3.015193,0.486874
0.000000,0.85,0.0,-1.570796,0.0,0.0,0.735047,2.404691,-0.072924,1.310772,0.824072,1.286642,2.502474,-3.013491,0.484487
0.000000,0.85,0.0,-1.570796,0.0,0.0,0.743473,2.372243,-0.077770,1.327105,0.828596,1.302802,2.500912,-3.015522,0.479714
0.000000,0.85,0.0,-1.570796,0.0,0.0,0.752321,2.341016,-0.082227,1.341921,0.834293,1.318118,2.499805,-3.018645,0.479714
0.000000,0.85,0.0,-1.570796,0.0,0.0,0.770986,2.280092,-0.090866,1.368936,0.847819,1.347452,2.498198,-3.027369,0.477327
0.000000,0.85,0.0,-1.570796,0.0,0.0,0.780745,2.252686,-0.094474,1.379167,0.856235,1.360125,2.498281,-3.033836,0.472554
0.000000,0.85,0.0,-1.570796,0.0,0.0,0.784970,2.225211,-0.100740,1.397048,0.855242,1.375481,2.494017,-3.030154,0.472554
0.000000,0.85,0.0,-1.570796,0.0,0.0,0.784936,2.191454,-0.110615,1.426417,0.844566,1.396572,2.484477,-3.016148,0.470167
0.000000,0.85,0.0,-1.570796,0.0,0.0,0.785000,2.162680,-0.118902,1.451355,0.834891,1.414295,2.476113,-3.004295,0.467780
0.000000,0.85,0.0,-1.570796,0.0,0.0,0.778101,2.182524,-0.113664,1.441995,0.827975,1.404156,2.474154,-2.999651,0.465394
0.000000,0.85,0.0,-1.570796,0.0,0.0,0.769761,2.208143,-0.106916,1.429376,0.819894,1.390892,2.472023,-2.994557,0.465394
0.000000,0.85,0.0,-1.570796,0.0,0.0,0.763360,2.229565,-0.101231,1.418241,0.813974,1.379599,2.470675,-2.991244,0.465394
0.000000,0.85,0.0,-1.570796,0.0,0.0,0.756618,2.253938,-0.094908,1.405037,0.807810,1.366447,2.469757,-2.988570,0.463007
0.000000,0.85,0.0,-1.570796,0.0,0.0,0.750837,2.276727,-0.088689,1.392167,0.802904,1.354089,2.469041,-2.986680,0.463007
0.000000,0.85,0.0,-1.570796,0.0,0.0,0.744070,2.305804,-0.080598,1.375176,0.797365,1.338136,2.468507,-2.985160,0.463007
0.000000,0.85,0.0,-1.570796,0.0,0.0,0.738847,2.330759,-0.073578,1.359947,0.793032,1.324134,2.468554,-2.985037,0.463007
0.000000,0.85,0.0,-1.570796,0.0,0.0,0.734262,2.355054,-0.066432,1.344721,0.789522,1.310444,2.468769,-2.985357,0.460621
0.000000,0.85,0.0,-1.570796,0.0,0.0,0.730007,2.379792,-0.059008,1.328791,0.786098,1.296319,2.469248,-2.986426,0.460621
0.000000,0.85,0.0,-1.570796,0.0,0.0,0.725257,2.410700,-0.049395,1.308522,0.782399,1.278602,2.470060,-2.988194,0.460621
0.000000,0.85,0.0,-1.570796,0.0,0.0,0.718529,2.461192,-0.033111,1.274553,0.776154,1.249308,2.471813,-2.992596,0.460621
0.000000,0.85,0.0,-1.570796,0.0,0.0,0.715814,2.486637,-0.024419,1.257004,0.773442,1.234407,2.472958,-2.995372,0.458234
0.000000,0.85,0.0,-1.570796,0.0,0.0,0.710534,2.544721,-0.003754,1.216476,0.766173,1.200260,2.475701,-3.002587,0.458234
0.000000,0.85,0.0,-1.570796,0.0,0.0,0.708712,2.571022,0.006131,1.197962,0.762836,1.184739,2.477084,-3.006050,0.458234
0.000000,0.85,0.0,-1.570796,0.0,0.0,0.707111,2.597292,0.016314,1.179374,0.758864,1.169212,2.478429,-3.009775,0.455847
0.000000,0.85,0.0,-1.570796,0.0,0.0,0.705452,2.630896,0.029797,1.155652,0.753431,1.149416,2.480199,-3.014403,0.455847
0.000000,0.85,0.0,-1.570796,0.0,0.0,0.704373,2.658299,0.041188,1.136374,0.748453,1.133332,2.481636,-3.018096,0.455847
0.000000,0.85,0.0,-1.570796,0.0,0.0,0.703526,2.685822,0.053006,1.117103,0.742899,1.117259,2.483074,-3.021681,0.455847
0.000000,0.85,0.0,-1.570796,0.0,0.0,0.702787,2.721335,0.068850,1.092396,0.734829,1.096684,2.484934,-3.026058,0.453461
